X: 1
T: Sansonnet, Le
T: The Starling
C: Dominique Forges
R: Schottische
M: 4/4
L: 1/8
K: Dmin
Z: ABC transcription by Verge Roller
r: 32
|: "Dm" A2 ^GA =G2 F2 | "A" EGFE "Dm" D2 FE | "Dm" DEFG A2 ^GA | "A" c2 =B2 E4 |
"Dm" A2 ^GA =G2 F2 | "A" EGFE "Dm" D2 FE | "Dm" DEFG A2 GF | "A" EFGA "Dm" D4 :|
|: "Dm" A2 FA BFAB | "Dm" A2 FA BFAB | "A" E2  EA BEAB | "A" E2 EA BEAB |
"Dm" A2 FA BFAB | "Dm" A2 FA BFAB | "A" EBAG "Edim" FEDC | "Dm" DEFE  D4 :|
